themes/windows10/assets/arrow-up.svg

<svg xmlns="http://www.w3.org/2000/svg" width="7mm" height="6mm" viewBox="0 0 7 6">
  <path fill="none" d="M0 .5V0h3l-.125.375Q2.75.75 2.5 1l-.5.5-.5.5-.5.5q-.25.25-.625.375L0 3z" style="fill:#000;fill-opacity:0"/>
  <path d="M3.5 3.2e-7 7 3.0000003v3L3.5 3.2583525 2e-8 6.0000003v-3" style="fill:gray;fill-opacity:1"/>
  <path fill="none" d="M4.125.375 4 0h3v3l-.375-.125Q6.25 2.75 6 2.5L5.5 2 5 1.5 4.5 1Q4.25.75 4.125.375M3 3.5q.25-.25.5-.25t.5.25l.5.5.5.5.5.5q.25.25.375.625L6 6H1l.125-.375Q1.25 5.25 1.5 5l.5-.5.5-.5z" style="fill:#000;fill-opacity:0"/>
</svg>

<?xml version="1.0" encoding="UTF-8" standalone="no"?>
<!-- Created with Inkscape (http://www.inkscape.org/) -->

<svg
   xmlns:dc="http://purl.org/dc/elements/1.1/"
   xmlns:cc="http://creativecommons.org/ns#"
   xmlns:rdf="http://www.w3.org/1999/02/22-rdf-syntax-ns#"
   xmlns:svg="http://www.w3.org/2000/svg"
   xmlns="http://www.w3.org/2000/svg"
   xmlns:sodipodi="http://sodipodi.sourceforge.net/DTD/sodipodi-0.dtd"
   xmlns:inkscape="http://www.inkscape.org/namespaces/inkscape"
   width="7mm"
   height="6mm"
   viewBox="0 0 7 6"
   version="1.1"
   id="svg8"
   sodipodi:docname="arrow-up.svg"
   inkscape:version="0.92.3 (2405546, 2018-03-11)">
  <defs
     id="defs2" />
  <sodipodi:namedview
     id="base"
     pagecolor="#ffffff"
     bordercolor="#666666"
     borderopacity="1.0"
     inkscape:pageopacity="0.0"
     inkscape:pageshadow="2"
     inkscape:zoom="1.979899"
     inkscape:cx="-255.56385"
     inkscape:cy="27.940314"
     inkscape:document-units="mm"
     inkscape:current-layer="g4537"
     showgrid="false"
     inkscape:window-width="1920"
     inkscape:window-height="991"
     inkscape:window-x="0"
     inkscape:window-y="0"
     inkscape:window-maximized="1"
     showguides="true"
     inkscape:guide-bbox="true" />
  <metadata
     id="metadata5">
    <rdf:RDF>
      <cc:Work
         rdf:about="">
        <dc:format>image/svg+xml</dc:format>
        <dc:type
           rdf:resource="http://purl.org/dc/dcmitype/StillImage" />
        <dc:title />
      </cc:Work>
    </rdf:RDF>
  </metadata>
  <g
     inkscape:label="Calque 1"
     inkscape:groupmode="layer"
     id="layer1"
     transform="translate(0.00468177,-0.01050555)">
    <g
       transform="translate(-0.00468177,0.01050555)"
       id="g4537">
      <path
         style="fill:#000000;fill-opacity:0"
         d="M 0,0.5 V 0 H 0.5 1 1.5 2 2.5 3 L 2.875,0.375 Q 2.75,0.75 2.5,1 2.25,1.25 2,1.5 1.75,1.75 1.5,2 1.25,2.25 1,2.5 0.75,2.75 0.375,2.875 L 0,3 V 2.5 2 1.5 1 0.5"
         id="path4529"
         inkscape:connector-curvature="0" />
      <path
         style="fill:#808080;fill-opacity:1"
         d="m 3.5,3.2e-7 c 0,0 0,0 3.5,2.99999998 0,1.154448 0,1.9621581 0,3 C 3.5,3.2583525 3.5,3.2583525 3.5,3.2583525 c 0,0 0,0 -3.49999998,2.7416478 0,-1.1544481 0,-1.9621581 0,-3"
         id="path4531"
         inkscape:connector-curvature="0"
         sodipodi:nodetypes="cccccc" />
      <path
         style="fill:#000000;fill-opacity:0"
         d="M 4.125,0.375 4,0 H 4.5 5 5.5 6 6.5 7 V 0.5 1 1.5 2 2.5 3 L 6.625,2.875 Q 6.25,2.75 6,2.5 5.75,2.25 5.5,2 5.25,1.75 5,1.5 4.75,1.25 4.5,1 4.25,0.75 4.125,0.375"
         id="path4533"
         inkscape:connector-curvature="0" />
      <path
         style="fill:#000000;fill-opacity:0"
         d="M 3,3.5 Q 3.25,3.25 3.5,3.25 3.75,3.25 4,3.5 4.25,3.75 4.5,4 4.75,4.25 5,4.5 5.25,4.75 5.5,5 5.75,5.25 5.875,5.625 L 6,6 H 5.5 5 4.5 4 3.5 3 2.5 2 1.5 1 L 1.125,5.625 Q 1.25,5.25 1.5,5 1.75,4.75 2,4.5 2.25,4.25 2.5,4 2.75,3.75 3,3.5"
         id="path4535"
         inkscape:connector-curvature="0" />
    </g>
  </g>
</svg>
